frontend/public/svg/hand gestures/v.svg

<svg width="113" height="146" viewBox="0 0 113 146" fill="none" xmlns="http://www.w3.org/2000/svg">
<g clip-path="url(#clip0)">
<path d="M29.4862 123.91C31.6173 127.766 33.822 131.751 37.4693 134.543C46.996 141.828 56.656 145.43 66.7893 145.43C69.7166 145.423 72.6366 145.134 75.5087 144.568C89.6101 141.823 99.1855 134.568 104.781 122.387C106.914 117.777 108.443 112.911 109.33 107.909C111.027 98.1883 112.387 89.4098 111.843 80.4088C111.609 76.4708 110.842 72.5833 109.562 68.852C107.597 63.2148 101.847 60.1562 95.8887 61.5778C94.5662 61.9554 93.2961 62.4995 92.1108 63.197C91.6455 63.4431 91.1663 63.6971 90.68 63.9341C88.2857 58.5908 83.9387 55.932 77.4108 55.8178C77.4397 55.6734 77.4672 55.5349 77.4942 55.4023C77.5906 54.9199 77.674 54.5038 77.7829 54.1041C78.2942 52.225 78.82 50.3498 79.3457 48.4747C80.4359 44.5865 81.5628 40.5665 82.542 36.5786C84.0602 30.4004 85.6852 23.2011 85.7581 15.9302C85.7896 12.6701 85.8237 8.97298 84.3181 5.5423C83.1741 2.93467 81.4427 1.21968 79.3115 0.583037C77.2113 -0.0431098 74.8786 0.422244 72.5565 1.93116C69.4363 3.878 66.8845 6.61351 65.1595 9.86166C63.1657 13.6356 61.387 17.5192 59.8316 21.4939C57.6171 27.3603 55.4936 33.3737 53.4406 39.1842C52.5047 41.835 51.564 44.4848 50.6185 47.1338C50.3855 47.7842 50.124 48.4274 49.8208 49.1724L49.624 49.6613L49.6202 49.6521C49.4834 49.4002 49.3788 49.1321 49.309 48.854C47.976 41.4276 45.2896 34.326 42.6918 27.4574C41.4277 24.1147 40.1202 20.6584 38.9874 17.2133C37.3761 12.3098 33.1777 9.8656 28.0268 10.8258C26.3513 11.1407 24.7596 11.8013 23.3536 12.7653C21.9474 13.7293 20.7574 14.9757 19.8597 16.425C18.867 18.0208 18.2126 19.8034 17.9371 21.6624C17.6617 23.5215 17.771 25.4173 18.2583 27.2323C19.9136 33.5167 21.6412 39.895 23.3122 46.0626C24.8382 51.6986 26.4166 57.5269 27.9354 63.2666C28.5839 65.7154 29.1213 68.2272 29.6897 70.886C29.9142 71.9361 30.1461 73.0184 30.3929 74.1408L29.7003 73.6813C28.9672 73.197 28.4376 72.8465 27.879 72.5137C21.5847 68.7654 15.2155 67.4809 8.94682 68.6997C7.26206 68.9701 5.67655 69.6737 4.34538 70.7409C3.0142 71.8088 1.98311 73.2035 1.35307 74.7892C0.75815 76.4708 0.603661 78.277 0.904087 80.0353C1.20451 81.7937 1.94969 83.4463 3.06923 84.8351C4.14183 86.1596 5.34891 87.3693 6.67076 88.445C12.2116 93.2579 16.2533 98.361 19.0303 104.046C22.0494 110.23 25.3106 116.45 28.7209 122.531C28.9773 122.991 29.2324 123.45 29.4862 123.91ZM34.0485 89.0272C35.8075 88.7883 36.7986 87.3968 36.7671 85.2086C36.6968 76.0881 35.4642 67.0136 33.0989 58.2049C31.0288 50.6052 29.1994 42.8 27.4313 35.2521C26.9285 33.108 26.4237 30.964 25.917 28.82C25.436 27.0043 25.1956 25.1333 25.2017 23.2549C25.2441 21.7863 25.6891 20.3576 26.4881 19.1246C27.2849 18.0035 28.1624 17.4351 29.0202 17.4594C29.8925 17.4916 30.7379 18.1427 31.4651 19.3438C32.5281 21.1687 33.4597 23.0671 34.2526 25.0244C38.0431 34.1199 40.9392 43.5627 42.9004 53.2193C43.3769 55.4719 43.9395 57.7415 44.4829 59.937C44.9424 61.8023 45.4229 63.7306 45.8443 65.6359C45.9955 66.4386 46.0739 67.2532 46.0786 68.0703C46.097 68.5671 46.1158 69.0817 46.167 69.5864C46.3692 71.6086 47.386 72.7953 49.0302 72.9279C50.7668 73.0657 52.1589 71.799 52.5042 69.7735C52.5932 69.3055 52.6253 68.8277 52.6 68.3519C52.2252 62.9922 53.8227 58.136 55.7891 52.7967L57.0203 49.4493C60.0795 41.1342 63.2425 32.5349 66.5064 24.139C68.0724 20.1956 69.8728 16.3491 71.8976 12.6203C73.2995 9.98374 74.9673 8.31927 77.1286 7.40499C78.4143 9.607 78.3047 11.7821 78.1892 14.0806L78.1754 14.3563C77.84 21.1375 76.3849 27.6839 74.303 35.4247C72.6747 41.4788 70.8901 47.6017 69.1659 53.5232C68.1623 56.9677 67.1581 60.4148 66.1783 63.8632C65.6468 65.5962 65.2753 67.3739 65.0685 69.1749C64.8545 71.4885 65.6204 72.8143 67.4095 73.2285C69.7172 73.7634 71.4427 72.8248 72.2789 70.59C72.6202 69.679 72.9405 68.7588 73.2601 67.8393C73.7045 66.5614 74.1639 65.2402 74.6758 63.9669C75.938 60.8342 77.6917 60.1076 80.9373 61.3737C82.0629 61.7513 83.0671 62.423 83.8462 63.319C84.6253 64.215 85.1503 65.3029 85.3682 66.4702C85.6491 68.1031 85.8086 69.7538 85.8461 71.4104L85.8966 72.4336C85.9845 74.0745 86.2609 75.8722 88.4412 76.3815C90.4312 76.8469 91.4059 75.5329 92.2355 74.15C92.4324 73.8218 92.6227 73.4936 92.815 73.1655C93.4865 71.942 94.2518 70.7731 95.1043 69.6685C96.5371 67.918 98.1694 67.0582 99.7092 67.2499C101.231 67.4389 102.59 68.6525 103.535 70.6628C105.887 75.8604 106.756 81.6079 106.044 87.2682C105.217 95.0832 103.985 102.748 103.005 108.552C102.074 114.065 99.6823 119.586 95.8966 124.969C92.4344 129.891 87.2985 133.373 80.1983 135.612C67.1752 139.717 54.9667 137.569 42.877 129.049C41.6983 128.262 40.6708 127.269 39.8441 126.118C37.7524 123.081 35.8179 119.939 34.0485 116.704C32.3696 113.545 30.7425 110.287 29.1699 107.137C27.6892 104.172 26.158 101.106 24.5848 98.1234C21.435 92.1008 17.1383 86.7523 11.9365 82.3778C10.547 81.2955 9.2994 80.0419 8.22347 78.6472C7.93291 78.3118 7.72288 77.9147 7.60913 77.4855C7.49539 77.0569 7.48089 76.6073 7.56713 76.1721C7.79685 75.3648 8.56621 74.6658 9.79093 74.15C10.9689 73.6557 12.2348 73.405 13.5123 73.4142C14.2972 73.4181 15.08 73.4956 15.8502 73.6472C21.8465 74.7905 25.8077 77.1009 28.3142 80.9188C29.0298 82.1428 29.5782 83.4575 29.9451 84.8273C30.0764 85.2499 30.2135 85.672 30.356 86.0861C31.0779 88.1752 32.4221 89.2451 34.0485 89.0272Z" fill="black"/>
</g>
<defs>
<clipPath id="clip0">
<rect width="111.577" height="145.707" fill="white" transform="translate(0.575562 0.0078125)"/>
</clipPath>
</defs>
</svg>

<svg xmlns="http://www.w3.org/2000/svg" width="113" height="146" fill="none" viewBox="0 0 113 146"><g clip-path="url(#a)"><path fill="#000" d="M29.486 123.91c2.131 3.856 4.336 7.841 7.983 10.633 9.527 7.285 19.187 10.887 29.32 10.887a45.7 45.7 0 0 0 8.72-.862c14.101-2.745 23.677-10 29.272-22.181a59 59 0 0 0 4.549-14.478c1.697-9.72 3.057-18.5 2.513-27.5a43.6 43.6 0 0 0-2.281-11.557c-1.965-5.637-7.715-8.696-13.673-7.274a16.2 16.2 0 0 0-3.778 1.619c-.466.246-.945.5-1.431.737-2.394-5.343-6.741-8.002-13.27-8.116l.084-.416c.097-.482.18-.898.289-1.298.511-1.879 1.037-3.754 1.563-5.63 1.09-3.887 2.217-7.907 3.196-11.895C84.06 30.4 85.685 23.2 85.758 15.93c.032-3.26.066-6.957-1.44-10.388-1.144-2.607-2.875-4.322-5.007-4.959-2.1-.626-4.432-.16-6.755 1.348a20.9 20.9 0 0 0-7.397 7.93 113 113 0 0 0-5.327 11.633c-2.215 5.866-4.338 11.88-6.391 17.69q-1.404 3.976-2.823 7.95a52 52 0 0 1-.797 2.038l-.197.49-.004-.01a3.4 3.4 0 0 1-.311-.798c-1.333-7.426-4.02-14.528-6.617-21.397-1.264-3.342-2.572-6.799-3.705-10.244-1.61-4.903-5.81-7.347-10.96-6.387a12.27 12.27 0 0 0-8.167 5.599 13.72 13.72 0 0 0-1.602 10.807 2788 2788 0 0 0 5.054 18.83c1.526 5.637 3.105 11.465 4.623 17.205.649 2.448 1.186 4.96 1.755 7.619.224 1.05.456 2.132.703 3.255l-.693-.46c-.733-.484-1.262-.834-1.821-1.167-6.294-3.749-12.663-5.033-18.932-3.814a9.85 9.85 0 0 0-7.594 6.09A10.45 10.45 0 0 0 3.07 84.834a24.7 24.7 0 0 0 3.602 3.61c5.54 4.813 9.582 9.916 12.36 15.601a368 368 0 0 0 9.69 18.485q.384.69.765 1.379m4.562-34.883c1.76-.239 2.75-1.63 2.72-3.818a107.3 107.3 0 0 0-3.67-27.004c-2.07-7.6-3.899-15.405-5.667-22.953a3811 3811 0 0 0-1.514-6.432 21.5 21.5 0 0 1-.715-5.565 8 8 0 0 1 1.286-4.13c.797-1.122 1.674-1.69 2.532-1.666.872.033 1.718.684 2.445 1.885a44.4 44.4 0 0 1 2.788 5.68A152 152 0 0 1 42.9 53.22c.477 2.253 1.04 4.523 1.583 6.718.46 1.865.94 3.794 1.361 5.699q.227 1.207.235 2.434c.018.497.037 1.012.088 1.516.202 2.023 1.219 3.21 2.863 3.342 1.737.138 3.129-1.129 3.474-3.154.09-.469.121-.946.096-1.422-.375-5.36 1.223-10.216 3.19-15.555l1.23-3.348c3.06-8.315 6.222-16.914 9.486-25.31a107 107 0 0 1 5.392-11.519c1.401-2.636 3.07-4.3 5.23-5.215 1.286 2.202 1.177 4.377 1.061 6.676l-.014.275c-.335 6.781-1.79 13.328-3.872 21.069-1.628 6.054-3.413 12.177-5.137 18.098a1613 1613 0 0 0-2.988 10.34 29.7 29.7 0 0 0-1.11 5.312c-.213 2.314.552 3.64 2.341 4.053 2.308.535 4.034-.403 4.87-2.638.341-.911.662-1.831.981-2.75.444-1.279.904-2.6 1.416-3.873 1.262-3.133 3.016-3.86 6.261-2.593a6.66 6.66 0 0 1 4.431 5.096c.281 1.633.44 3.284.478 4.94l.05 1.024c.088 1.64.365 3.438 2.545 3.948 1.99.465 2.965-.85 3.794-2.232q.294-.492.58-.985a27 27 0 0 1 2.29-3.497c1.432-1.75 3.064-2.61 4.604-2.418 1.522.189 2.881 1.403 3.826 3.413a30.9 30.9 0 0 1 2.509 16.605c-.827 7.815-2.059 15.48-3.039 21.284-.931 5.513-3.323 11.034-7.108 16.417-3.463 4.922-8.599 8.404-15.699 10.643-13.023 4.105-25.231 1.957-37.321-6.563a11.8 11.8 0 0 1-3.033-2.931 108 108 0 0 1-5.796-9.414c-1.678-3.159-3.306-6.417-4.878-9.567-1.48-2.965-3.012-6.031-4.585-9.014a52.2 52.2 0 0 0-12.648-15.745 21 21 0 0 1-3.714-3.73 2.91 2.91 0 0 1-.656-2.476c.23-.807 1-1.506 2.224-2.022a9.4 9.4 0 0 1 3.721-.736c.785.004 1.568.082 2.338.233 5.996 1.143 9.958 3.454 12.464 7.272a16 16 0 0 1 1.631 3.908q.197.636.411 1.26c.722 2.088 2.066 3.158 3.692 2.94"/></g><defs><clipPath id="a"><path fill="#fff" d="M.576.008h111.577v145.707H.576z"/></clipPath></defs></svg>
